X:2954
T:Chicago Jig
R:Jig
S:(Seamus Egan)
H:
N:
D:
Z:Adrian Scahill
M:6/8
L:1/8
K:G
F2D DEG|F2D DEG|F2D DED|B,2G, G,2G|\
F2D DEG|F2D DFA|B3 cAF|1 G3 BAG:|2 G3 G2A||\
B3 cde|dcB ABc|B2G GAG|F2D DFA|\
B3 cde|dcB ABc|BdB cAF|G3 G2A:||


